src/assets/images/icons/loader.svg

<svg xmlns="http://www.w3.org/2000/svg" fill="none" viewBox="0 0 24 24"><path stroke="#181D27" stroke-linecap="round" stroke-linejoin="round" stroke-width="2" d="M12 2v4m0 12v4M4.93 4.93l2.83 2.83m8.48 8.48 2.83 2.83M2 12h4m12 0h4M4.93 19.07l2.83-2.83m8.48-8.48 2.83-2.83"/></svg>

<svg width="24" height="24" viewBox="0 0 24 24" fill="none" xmlns="http://www.w3.org/2000/svg">
<path d="M12 2V6M12 18V22M4.93 4.93L7.76 7.76M16.24 16.24L19.07 19.07M2 12H6M18 12H22M4.93 19.07L7.76 16.24M16.24 7.76L19.07 4.93" stroke="#181D27" stroke-width="2" stroke-linecap="round" stroke-linejoin="round"/>
</svg>
